www/assets/icons/save_as.svg

<svg width="24" height="24" viewBox="0 0 24 24" xmlns="http://www.w3.org/2000/svg" fill='currentColor'><path d="M19.8 11.4V6L15.8 2H3.80005C2.69005 2 1.80005 2.9 1.80005 4V18C1.80005 19.1 2.69005 20 3.80005 20H11.2L19.8 11.4ZM13.8 14C13.8 15.66 12.46 17 10.8 17C9.14005 17 7.80005 15.66 7.80005 14C7.80005 12.34 9.14005 11 10.8 11C12.46 11 13.8 12.34 13.8 14ZM4.80005 5H13.8V9H4.80005V5ZM18.79 15.25L20.56 17.02L15.57 22H13.8V20.23L18.79 15.25ZM22.05 15.51L21.2 16.36L19.43 14.59L20.28 13.74C20.48 13.54 20.79 13.54 20.99 13.74L22.05 14.8C22.25 15 22.25 15.32 22.05 15.51Z"/></svg>

<svg xmlns="http://www.w3.org/2000/svg" width="24" height="24" viewBox="0 0 24 24" fill='currentColor'><path d="M19.8 11.4V6l-4-4h-12a2 2 0 0 0-2 2v14a2 2 0 0 0 2 2h7.4zm-6 2.6c0 1.66-1.34 3-3 3s-3-1.34-3-3 1.34-3 3-3 3 1.34 3 3m-9-9h9v4h-9zm13.99 10.25 1.77 1.77L15.57 22H13.8v-1.77zm3.26.26-.85.85-1.77-1.77.85-.85c.2-.2.51-.2.71 0l1.06 1.06c.2.2.2.52 0 .71"/></svg>
